X:88
T:Keep Your Eye on the Linspin
B:Terry "Cuz" Teahan "Sliabh Luachra on Parade" 1980
Z:Patrick Cavanagh
M:2/4
L:1/8
R:Polka
K:D
| EA AB | cd e2 | G2 GA | GE ED | 
EA AB | cd ef | ge dB | A2 A2 :| 
| ea ab | ag ef | ge ga | ge ed | 
a2 ab | ag ef | ge dB | A2 A2 :| 

